X: 25966
T: May Day
R: jig
M: 6/8
K: Dmajor
A|d2 d A2 A|BdB A2 A|Bcd efg|fed ecA|
d2 d A2 A|BdB A2 g|fed ecA|d3 D2:|
|:a|a2 f d2 b|g2 e c2 a|f2 d B2 e|cde A2 A|
BdB cec|dfa a2 g|fed Adc|d3 D2:|

